svgs/thin/spa.svg

<svg xmlns="http://www.w3.org/2000/svg" viewBox="0 0 576 512"><!--! Font Awesome Pro 6.3.0 by @fontawesome - https://fontawesome.com License - https://fontawesome.com/license (Commercial License) Copyright 2023 Fonticons, Inc. --><path d="M190.8 207.7C194.1 208.8 199.4 205.1 200.3 201.7c14.62-62.49 45.97-118.3 85.97-153.2c.7187-.5938 2.625-.5938 3.344-.0313c40 34.87 71.34 90.78 86 153.4c.8438 3.688 4.156 6.188 7.781 6.188c.5938 0 1.219-.0625 1.812-.2187c4.312-1 6.969-5.312 5.969-9.594c-15.38-65.81-48.59-124.8-91.09-161.8c-6.875-5.844-17.53-5.844-24.28 .0313c-42.5 37.06-75.69 95.96-91.06 161.7C183.8 202.4 186.4 206.7 190.8 207.7zM560.5 192c-30.25 .125-135 6.342-213.2 80.34C322.7 293.7 302.8 319.4 288 348.9C273.2 319.4 253.3 293.7 228.1 272.6c-78.41-74.21-183.2-80.43-213.4-80.55C6.813 192 0 198.8 0 207.5C.25 235.1 7.469 330.7 88.78 401.4C171.8 480 254.8 479.9 286.9 480v-8L289.1 480h1.219c32.34 0 114.9-.9062 196.7-78.34C568.5 330.7 575.8 235.1 576 207.5C576 198.8 569.2 192 560.5 192zM476.2 389.8c-77.41 73.31-152.7 74.18-185.9 74.18H285.7c-33.19 0-108.5-.9062-186.1-74.4C23 322.1 16.25 233.3 15.5 208c28.75 .125 128.3 6 202.7 76.4c27.41 23.81 47.81 52.18 62.41 86.71c2.5 5.875 12.25 5.875 14.75 0c14.59-34.53 35-62.9 62.66-86.93C431.8 214.4 530.6 208.2 560 208C559.6 234.7 552.4 323.5 476.2 389.8z"/></svg>

<svg xmlns="http://www.w3.org/2000/svg" viewBox="0 0 576 512"><!-- Font Awesome Pro 6.0.0-alpha2 by @fontawesome - https://fontawesome.com License - https://fontawesome.com/license (Commercial License) --><path d="M190.75 207.678C194.969 208.834 199.375 205.99 200.344 201.709C214.969 139.215 246.312 83.375 286.312 48.502C287.031 47.908 288.937 47.908 289.656 48.471C329.656 83.344 361 139.246 375.656 201.834C376.5 205.521 379.812 208.021 383.438 208.021C384.031 208.021 384.656 207.959 385.25 207.803C389.562 206.803 392.219 202.49 391.219 198.209C375.844 132.402 342.625 73.438 300.125 36.379C293.25 30.535 282.594 30.535 275.844 36.41C233.344 73.469 200.156 132.371 184.781 198.084C183.781 202.365 186.438 206.678 190.75 207.678ZM560.469 192.023H560.437C530.187 192.148 425.437 198.365 347.281 272.359C322.719 293.701 302.844 319.387 288 348.916C273.156 319.387 253.312 293.732 228.969 272.578C150.562 198.365 45.812 192.148 15.531 192.023C6.812 192.023 0 198.803 0 207.521C0.25 235.113 7.469 330.668 88.781 401.443C171.781 480 254.781 479.875 286.906 480V472L289.094 480H290.25C322.594 480 405.188 479.094 486.969 401.662C568.531 330.668 575.75 235.113 576 207.459C576 198.803 569.188 192.023 560.469 192.023ZM476.219 389.82C398.812 463.127 323.531 464.002 290.344 464.002H285.656C252.469 464.002 177.188 463.096 99.531 389.602C23 322.98 16.25 233.301 15.5 208.021C44.25 208.146 143.812 214.021 218.219 284.422C245.625 308.232 266.031 336.605 280.625 371.133C283.125 377.008 292.875 377.008 295.375 371.133C309.969 336.605 330.375 308.232 358.031 284.203C431.75 214.428 530.594 208.209 560 208.021C559.625 234.738 552.375 323.512 476.219 389.82Z"/></svg>
